X: 16093
T: Green Fields Of Woodford, The
R: jig
M: 6/8
K: Gmajor
d|:dBA ~G2E|EDE G3|edB dBA|B2e ege|
dBA ~G2E|EDE G3|AGE ~A2B|GED D2d:|
BGG DGG|edB dBA|BGG DGG|edB A2|
BGG DGG|edB AGE|AGE A2|B GED D2|
BGG DGG|edB dBA|BGG DGG|edB A2|
BGG deg|age dBA|GAB AGE|GED D2||

